X: 1
T:Tripping up the Stairs
M:C
L:1/8
Q:80
C:Traditional Irish
S:Reel
K:HP
[| B|
{g}GA{gAGAG}A2{g}GB{gBeBG}B2|
{g}Ad{gdedc}d2{g}fe{g}de|
{g}Bc{gcecG}c2{g}cA{g}Bc|  !
{gde}dA{g}fe{g}dc{g}Bc{g}GA{gAGAG}A2{g}GB{gBeBG}B2|
{g}Ad{gdedc}d2{g}fe{g}de|
{g}Bc{gcecG}c2{g}cA{g}Bc|  !
{gde}dA{g}fe{Gdc}d3|] [|
c|
{g}dB{gBeBG}B2{g}fB{gBeBG}B2|
{g}Bf{e}fB{g}Bf{g}ed|  !
{g}cA{gAGAG}A2{g}eA{gAGAG}A2|
{g}ce{A}eA{g}ce{gde}dc{g}dB{gBeBG}B2{g}fB{gBeBG}B2|
{g}Bf{e}fB{g}Bf{g}ed|  !
{g}Bc{gcecG}c2{g}cA{g}Bc|
{gde}dA{g}fe{Gdc}d3|]
